public/images/group.svg

<svg width="22" height="22" viewBox="0 0 22 22" fill="none" xmlns="http://www.w3.org/2000/svg">
<g id="Group">
<path id="Vector" d="M1.83325 4.87305V10.952C1.83325 10.952 1.83325 13.9915 8.96288 13.9915C16.0925 13.9915 16.0925 10.952 16.0925 10.952V4.87305" stroke="#EAE0FF" stroke-width="2" stroke-linecap="round" stroke-linejoin="round"/>
<path id="Vector_2" d="M8.96288 20.0703C1.83325 20.0703 1.83325 17.0309 1.83325 17.0309V10.9519M17.111 21.0835V15.0045M17.111 15.0045L20.1666 18.044M17.111 15.0045L14.0555 18.044M8.96288 1.8335C16.0925 1.8335 16.0925 4.87297 16.0925 4.87297C16.0925 4.87297 16.0925 7.91244 8.96288 7.91244C1.83325 7.91244 1.83325 4.87297 1.83325 4.87297C1.83325 4.87297 1.83325 1.8335 8.96288 1.8335Z" stroke="#EAE0FF" stroke-width="2" stroke-linecap="round" stroke-linejoin="round"/>
</g>
</svg>

<svg width="22" height="22" fill="none" xmlns="http://www.w3.org/2000/svg"><g stroke="#EAE0FF" stroke-width="2" stroke-linecap="round" stroke-linejoin="round"><path d="M1.833 4.873v6.079s0 3.04 7.13 3.04 7.13-3.04 7.13-3.04V4.873"/><path d="M8.963 20.07c-7.13 0-7.13-3.04-7.13-3.04v-6.078m15.278 10.132v-6.08m0 0 3.056 3.04m-3.056-3.04-3.056 3.04M8.963 1.834c7.13 0 7.13 3.039 7.13 3.039s0 3.04-7.13 3.04-7.13-3.04-7.13-3.04 0-3.04 7.13-3.04Z"/></g></svg>
